X:2415
T:Untitled 
C:Manx National Music dance tune XVII 
C:Traditional
O:Isle of Man
N:See 40,160,208,416,429
Z:Kiaull Vannin 415 
M:6/8 
Q:120 
K:G 
G>FG B>cd|G>AG F>ED|G>FG B>cd|g>fg d2z| 
g>fg d>cB|e>de d>BG|c>Bc Bdc|BGA G3|| 

